X: 4
T: Norman Toy  v.1
P: piffero primo b0008
O: Cushing
%R: march
F: http://ancients.sudburymuster.org/mus/ssp/pdf/MacintosF.pdf
Z: 2019 John Chambers <jc:trillian.mit.edu>
M: 2/4
L: 1/16
K: D
z2 |\
d2A2 d2A2 | d2f2 f4 | B2g2 A2f2 | G2e2 E2c2 |\
d2A2 d2A2 | d2f2 f4 | A2c2 e2g2 | f2d2 d2 :|
|: z2 |\
F2A2 d2=c2 | =c2B2 B4 | A2c2 e2g2 | f2d2 d4 |\
A2d2 f2g2 | f2d2 A2F2 | G2e2 E2c2 | d4 D2 :|


